packages/core/src/svgs/get.svg

<svg width="24" height="24" viewBox="0 0 24 24" fill="none" xmlns="http://www.w3.org/2000/svg">
<g clip-path="url(#clip0_31_10729)">
<path d="M0 0H24V24H0V0Z" fill="#01C696"/>
<path d="M12.4285 11.1431V9.85735L10.2857 12.0002L12.4285 14.1431V12.8574H16.3135L12.1958 16.8396L7.21839 12.0002L12.1954 7.16078L14.8324 9.7245C14.9935 9.88135 15.2121 9.96921 15.4401 9.96921C15.6681 9.96921 15.8867 9.88135 16.0483 9.72493C16.2094 9.56764 16.2998 9.35507 16.2998 9.1335C16.2998 8.91193 16.2094 8.69935 16.0483 8.5425L12.8035 5.38821C12.6404 5.2305 12.4223 5.14257 12.1954 5.14307C11.9674 5.14307 11.7488 5.23093 11.5877 5.38778L5.39482 11.4092C5.31533 11.4859 5.25207 11.5777 5.20878 11.6793C5.16549 11.7809 5.14306 11.8902 5.14282 12.0006C5.14282 12.2218 5.23325 12.4344 5.39439 12.5912L11.5877 18.6126C11.7488 18.7695 11.9678 18.8574 12.1954 18.8574C12.4234 18.8574 12.6424 18.7695 12.8035 18.6126L18.4705 13.1025C18.7058 12.8792 18.8571 12.5921 18.8571 12.2561C18.8571 11.9196 18.7058 11.6325 18.4637 11.4024C18.303 11.2498 18.0874 11.1431 17.8628 11.1431H12.4285Z" fill="white"/>
</g>
<defs>
<clipPath id="clip0_31_10729">
<rect width="24" height="24" fill="white"/>
</clipPath>
</defs>
</svg>

<svg xmlns="http://www.w3.org/2000/svg" width="24" height="24" fill="none" viewBox="0 0 24 24"><g clip-path="url(#a)"><path fill="#01C696" d="M0 0h24v24H0z"/><path fill="#fff" d="M12.429 11.143V9.857L10.285 12l2.143 2.143v-1.286h3.885l-4.118 3.983L7.218 12l4.977-4.84 2.637 2.565c.161.156.38.244.608.244a.88.88 0 0 0 .608-.244.83.83 0 0 0 .252-.591.83.83 0 0 0-.252-.591l-3.244-3.155a.87.87 0 0 0-.609-.245.87.87 0 0 0-.607.245l-6.193 6.021a.82.82 0 0 0-.252.592c0 .22.09.433.251.59l6.194 6.022c.16.157.38.244.607.244a.87.87 0 0 0 .608-.244l5.668-5.51c.235-.224.386-.51.386-.847s-.151-.623-.393-.854a.9.9 0 0 0-.601-.259z"/></g><defs><clipPath id="a"><path fill="#fff" d="M0 0h24v24H0z"/></clipPath></defs></svg>
